X:1
T:Title
%%score { ( 1 3 ) | ( 2 4 ) }
L:1/8
M:6/8
K:G
V:1 treble nm="Grand Piano"
V:3 treble 
V:2 bass 
V:4 bass 
V:1
 z3 z2[Q:1/4=100] D | G2 F G2 [FA] | B2 d d2 [Ge] | dBG [FA]2 [GB] |[M:5/8] [FA]-[FA]- [FA]3 | %5
[M:1/8] D |[M:3/4] G2 F G2 [FA] |[M:7/8] B2 d d3 [Ge] |[M:3/4] .[Gd]2 [B,G] [DGB]2 [CFA] | %9
[M:5/8] [B,DG]-[B,DG]- [B,DG]3 |[M:1/8] D |[M:3/4] G2 GG ED | G6 | [DGB]2 [DGB][DB] A[B,DG] | %14
[M:5/8] [FA]-[FA]- [FA]3 |[M:1/8] B |[M:3/4] d2 d e2 d |[M:7/8] B2 c d3 [Ge] | %18
[M:3/4] .[Gd]2 [B,G] [DGB]2 [CFA] |[M:5/8] [B,DG]-[B,DG]- [B,DG]3 |] %20
V:2
 z3 z2 [G,B,] | [G,B,D]2 [A,CD] [G,B,E]2 [D,D] | [G,DG]2 [G,B,G] [G,B,G]2[K:bass] [C,C] | %3
 [D,B,]2 [D,B,] [D,D]2 [D,D] |[M:5/8] [D,D]-[D,D]- [D,D]3 |[M:1/8] [G,B,] | %6
[M:3/4] [G,B,D]2 [A,CD] [G,B,D]2 [D,D] |[M:7/8][K:treble] [G,DG]2 [G,B,G] [G,B,G]3[K:bass] [C,C] | %8
[M:3/4] z[K:treble] B[K:bass] D, D,2 D, |[M:5/8] G,,-G,,- G,,3 |[M:1/8] [G,B,] | %11
[M:3/4] [G,B,D]2 [G,B,D][G,B,D] [G,C][G,B,] | [G,B,]2 z2 z2 | G,2 .G,2 CG, |[M:5/8] D,2 D, D,2 | %15
[M:1/8][K:treble] [G,DG] |[M:3/4] [G,B,G]2 [G,B,G] [G,CG]2 [G,B,G] | %17
[M:7/8] [G,G]2 [G,A,G] [G,B,G]3[K:bass] [C,C] |[M:3/4] z[K:treble] B[K:bass] D, D,2 D, | %19
[M:5/8] G,,-G,,- G,,3 |] %20
V:3
 x6 | x6 | x6 | .G3 z3 |[M:5/8] x5 |[M:1/8] x |[M:3/4] x6 |[M:7/8] x7 |[M:3/4] x6 |[M:5/8] x5 | %10
[M:1/8] x |[M:3/4] x6 | z2 B, B,2 [DFA] | x6 |[M:5/8] D2 D D2 |[M:1/8] x |[M:3/4] x6 |[M:7/8] x7 | %18
[M:3/4] x6 |[M:5/8] x5 |] %20
V:4
 x6 | x6 | x5[K:bass] x | x6 |[M:5/8] x5 |[M:1/8] x |[M:3/4] x6 |[M:7/8][K:treble] x6[K:bass] x | %8
[M:3/4] [D,B,]2[K:treble][K:bass] z2 z2 |[M:5/8] x5 |[M:1/8] x |[M:3/4] x6 | D2- [G,D-] [G,D]2 D, | %13
 z2 z .G,3 |[M:5/8] x5 |[M:1/8][K:treble] x |[M:3/4] x6 |[M:7/8] x6[K:bass] x | %18
[M:3/4] [D,B,]2[K:treble][K:bass] z2 z2 |[M:5/8] x5 |] %20

